X:4264
T:Miss McGuinness
O:england
R:reel
H:See also #259
M:C|
K:G
dG~G2 dGBd|dG~G2 efge|dG~G2 dGBd|1 egdB BAAB:|2 egdB BAAe||
|:faaf ~g3e|dedB defg|1 faaf ~g3e|dBGA BAAe:|2 bagb afge|dBGA BAAe||


